images/logos/white/bancosabadell-logo.svg

<svg width="231" height="46" viewBox="0 0 231 46" fill="none" xmlns="http://www.w3.org/2000/svg">
<g clip-path="url(#clip0_955_365)">
<path d="M30.4901 15.0601C30.4901 6.76023 23.7707 0.00927734 15.5097 0.00927734C7.24866 0.00927734 0.529297 6.76023 0.529297 15.0601C0.529297 23.36 7.24866 30.1109 15.5097 30.1109C23.7707 30.0817 30.4901 23.36 30.4901 15.0601ZM18.8839 14.7094V14.7386C20.7456 15.1186 21.9964 16.5506 21.9964 18.4794C21.9964 19.7945 21.211 20.9635 20.1638 21.7234C19.0875 22.5709 17.604 22.5709 16.3242 22.5709H9.63389V7.52008H16.3242C17.5168 7.52008 18.7385 7.52008 19.7566 8.16302C20.9492 8.92287 21.5891 10.0334 21.5891 11.4654C21.5891 13.1605 20.4547 14.3003 18.8839 14.7094ZM17.5168 19.4438C18.0113 19.1224 18.3022 18.5086 18.3022 17.8949C18.3022 17.3104 17.9531 16.7259 17.4586 16.4337C16.9641 16.1414 16.266 16.1414 15.6842 16.1414H13.0954V19.7653H15.5097C16.1787 19.7653 16.9932 19.8238 17.5168 19.4438ZM17.3422 13.1313C17.7495 12.839 17.9822 12.2837 17.9822 11.7869C17.9822 11.2316 17.7204 10.7056 17.2259 10.4133C16.7314 10.1211 15.8006 10.1795 15.2188 10.1795H13.0954V13.482H15.4806C16.1205 13.482 16.8187 13.5112 17.3422 13.1313Z" fill="white"/>
<path d="M62.8368 15.8491C60.5389 9.27354 55.1285 6.93555 48.5255 6.93555C45.064 6.93555 41.8061 7.72462 39.0718 10.0334C36.3666 12.3129 34.9995 15.4108 34.9995 18.947C34.9995 27.2469 41.6025 29.2341 48.3219 30.6077C50.6198 31.1045 54.9249 31.7183 54.9249 34.8746C54.9249 38.0308 51.5797 38.966 49.0491 38.966C45.1512 38.966 42.2715 37.5925 41.1662 33.5887L33.0215 35.4591C34.7377 42.853 41.1662 45.9508 48.2637 45.9508C52.0742 45.9508 56.1757 45.2202 59.2299 42.853C62.1387 40.5734 63.9131 37.0372 63.9131 33.3549C63.9131 29.5848 62.0515 26.4578 58.9681 24.3828C56.3211 22.6001 52.1906 21.8403 49.1072 21.1681C46.9547 20.7882 43.6677 20.116 43.6677 17.3396C43.6677 14.4171 46.5184 13.8034 48.9036 13.8034C52.2488 13.8034 54.2849 15.0601 55.3903 18.2748L62.8368 15.8491ZM92.0122 45.454C91.5759 44.0804 91.4596 42.6776 91.4596 41.2456V28.1528C91.4596 24.792 91.7214 21.6941 88.8707 19.3561C86.6019 17.4857 82.8786 16.8136 79.9988 16.8136C74.123 16.8136 67.52 18.8009 66.6765 25.6103L74.3267 26.3409C74.3267 23.5645 76.5955 22.2494 79.1844 22.2494C80.4061 22.2494 81.7732 22.6293 82.5004 23.5645C83.3149 24.6166 83.2276 26.0486 83.2276 27.2761V27.9483C79.8243 28.2697 75.3447 28.5035 72.1741 29.7017C68.4799 31.0753 65.8911 33.9101 65.8911 38.0601C65.8911 43.379 69.7307 46.0092 74.7048 46.0092C78.8935 46.0092 81.3078 44.4019 83.6349 41.0995C83.5767 42.5315 83.693 44.0219 84.013 45.454H92.0122ZM83.1985 33.1211C83.1985 35.1084 83.2567 36.7742 82.0932 38.5277C81.1624 39.9597 79.6789 40.8364 78.0209 40.8364C75.752 40.8364 74.443 39.346 74.443 37.1249C74.443 33.0334 80.1152 32.3028 83.1985 31.9813V33.1211ZM104.113 29.6433C104.113 26.6624 104.666 22.3955 108.563 22.3955C113.014 22.3955 113.014 28.2697 113.014 31.3968C113.014 34.4362 113.014 40.3104 108.447 40.3104C106.964 40.3104 105.8 39.5798 105.044 38.3815C104.171 37.008 104.113 35.2253 104.113 33.6763V29.6433ZM95.9101 45.454H100.302C100.797 43.9635 101.117 42.3561 102.106 41.1287C104.142 44.4896 106.062 45.98 110.076 45.98C118.482 45.98 121.42 38.7322 121.42 31.3676C121.42 24.7335 119.006 16.7551 111.007 16.7551C107.865 16.7551 105.567 18.0702 104.171 20.8466H103.997V7.4616H95.9101V45.454ZM149.258 45.454C148.821 44.0804 148.705 42.6776 148.705 41.2456V28.1528C148.705 24.792 148.967 21.6941 146.116 19.3561C143.847 17.4857 140.124 16.8136 137.244 16.8136C131.369 16.8136 124.766 18.8009 123.922 25.6103L131.572 26.3409C131.572 23.5645 133.841 22.2494 136.401 22.2494C137.622 22.2494 138.99 22.6293 139.717 23.5645C140.531 24.6166 140.444 26.0486 140.444 27.2761V27.9483C137.041 28.2697 132.561 28.5035 129.391 29.7017C125.696 31.0753 123.107 33.9101 123.107 38.0601C123.107 43.379 126.947 46.0092 131.921 46.0092C136.11 46.0092 138.524 44.4019 140.851 41.0995C140.793 42.5315 140.909 44.0219 141.229 45.454H149.258ZM140.444 33.1211C140.444 35.1084 140.502 36.7742 139.339 38.5277C138.408 39.9597 136.924 40.8364 135.266 40.8364C132.997 40.8364 131.688 39.346 131.688 37.1249C131.688 33.0334 137.361 32.3028 140.444 31.9813V33.1211ZM177.037 45.454V7.52004H168.95V20.3498C167.176 17.7488 165.111 16.8136 161.969 16.8136C153.825 16.8136 151.73 25.055 151.73 31.7475C151.73 38.2646 153.941 46.0092 161.795 46.0092C165.373 46.0092 167.671 44.0804 169.212 41.0995H169.329V45.454H177.037ZM168.95 33.7348C168.95 35.1084 168.892 36.5988 168.223 37.8847C167.554 39.1706 166.187 40.1643 164.704 40.1643C160.689 40.1643 160.253 35.0207 160.253 31.9813C160.253 28.6204 160.428 22.5124 165.053 22.5124C168.747 22.5124 168.95 27.1592 168.95 29.8771V33.7348ZM206.765 32.7704C206.823 28.9419 206.212 24.9673 203.914 21.7526C201.616 18.5378 197.573 16.7843 193.675 16.7843C184.978 16.7843 180.091 23.4768 180.091 31.7767C180.091 40.135 185.531 45.98 193.908 45.98C203.362 45.98 206.62 37.6801 206.62 36.3066L199.144 35.7513C199.144 38.3523 196.671 40.1643 194.199 40.1643C190.679 40.1643 188.818 37.4463 188.818 34.1439L188.876 32.7704H206.765ZM188.759 27.9775C189.021 24.7627 190.417 22.1033 193.995 22.1033C197.515 22.1033 198.504 24.9089 198.678 27.9775H188.759ZM210.343 45.454H218.429V7.52004H210.343V45.454ZM222.444 45.454H230.53V7.52004H222.444V45.454Z" fill="white"/>
</g>
<defs>
<clipPath id="clip0_955_365">
<rect width="230" height="46" fill="white" transform="translate(0.511719)"/>
</clipPath>
</defs>
</svg>

<svg width="231" height="46" fill="none" xmlns="http://www.w3.org/2000/svg"><g clip-path="url(#a)" fill="#fff"><path d="M30.49 15.06c0-8.3-6.72-15.05-14.98-15.05C7.249.01.53 6.76.53 15.06s6.719 15.05 14.98 15.05c8.26-.028 14.98-6.75 14.98-15.05Zm-11.606-.35v.029c1.862.38 3.112 1.812 3.112 3.74 0 1.316-.785 2.485-1.832 3.244-1.077.848-2.56.848-3.84.848h-6.69V7.52h6.69c1.193 0 2.414 0 3.433.642 1.192.76 1.832 1.87 1.832 3.302 0 1.696-1.134 2.835-2.705 3.244Zm-1.367 4.734c.494-.322.785-.935.785-1.55 0-.584-.349-1.168-.843-1.46-.495-.293-1.193-.293-1.775-.293h-2.589v3.624h2.415c.669 0 1.483.059 2.007-.321Zm-.175-6.313c.408-.292.64-.847.64-1.344 0-.555-.262-1.081-.756-1.374-.495-.292-1.425-.233-2.007-.233h-2.124v3.302h2.386c.64 0 1.338.03 1.861-.35ZM62.837 15.85c-2.298-6.576-7.709-8.914-14.312-8.914-3.461 0-6.719.789-9.453 3.097-2.705 2.28-4.073 5.378-4.073 8.914 0 8.3 6.603 10.287 13.323 11.66 2.298.498 6.603 1.111 6.603 4.268 0 3.156-3.345 4.091-5.876 4.091-3.898 0-6.777-1.373-7.883-5.377l-8.144 1.87c1.716 7.394 8.144 10.492 15.242 10.492 3.81 0 7.912-.73 10.966-3.098 2.909-2.28 4.683-5.816 4.683-9.498 0-3.77-1.861-6.897-4.945-8.972-2.647-1.783-6.777-2.543-9.86-3.215-2.153-.38-5.44-1.052-5.44-3.828 0-2.923 2.85-3.537 5.236-3.537 3.345 0 5.38 1.257 6.486 4.472l7.447-2.426Zm29.175 29.604c-.436-1.374-.552-2.776-.552-4.208V28.153c0-3.361.261-6.459-2.59-8.797-2.268-1.87-5.991-2.542-8.871-2.542-5.876 0-12.479 1.987-13.322 8.796l7.65.73c0-2.776 2.269-4.09 4.857-4.09 1.222 0 2.59.38 3.316 1.314.815 1.053.728 2.485.728 3.712v.672c-3.404.322-7.883.555-11.054 1.754-3.694 1.373-6.283 4.208-6.283 8.358 0 5.319 3.84 7.95 8.814 7.95 4.189 0 6.603-1.608 8.93-4.91a16.972 16.972 0 0 0 .378 4.354h8Zm-8.814-12.333c0 1.987.059 3.653-1.105 5.407-.93 1.432-2.414 2.308-4.072 2.308-2.269 0-3.578-1.49-3.578-3.711 0-4.092 5.672-4.822 8.755-5.144v1.14Zm20.915-3.478c0-2.98.553-7.248 4.45-7.248 4.451 0 4.451 5.875 4.451 9.002 0 3.04 0 8.913-4.567 8.913-1.483 0-2.647-.73-3.403-1.928-.873-1.374-.931-3.157-.931-4.706v-4.033ZM95.91 45.454h4.392c.495-1.49.815-3.098 1.804-4.325 2.036 3.36 3.956 4.851 7.97 4.851 8.406 0 11.344-7.248 11.344-14.612 0-6.634-2.414-14.613-10.413-14.613-3.142 0-5.44 1.315-6.836 4.092h-.174V7.462H95.91v37.992Zm53.348 0c-.437-1.374-.553-2.776-.553-4.208V28.153c0-3.361.262-6.459-2.589-8.797-2.269-1.87-5.992-2.542-8.872-2.542-5.875 0-12.478 1.987-13.322 8.796l7.65.73c0-2.776 2.269-4.09 4.829-4.09 1.221 0 2.589.38 3.316 1.314.814 1.053.727 2.485.727 3.712v.672c-3.403.322-7.883.555-11.053 1.754-3.695 1.373-6.284 4.208-6.284 8.358 0 5.319 3.84 7.95 8.814 7.95 4.189 0 6.603-1.608 8.93-4.91a16.98 16.98 0 0 0 .378 4.354h8.029Zm-8.814-12.333c0 1.987.058 3.653-1.105 5.407-.931 1.432-2.415 2.308-4.073 2.308-2.269 0-3.578-1.49-3.578-3.711 0-4.092 5.673-4.822 8.756-5.144v1.14Zm36.593 12.333V7.52h-8.087v12.83c-1.774-2.601-3.839-3.536-6.981-3.536-8.144 0-10.239 8.241-10.239 14.933 0 6.518 2.211 14.262 10.065 14.262 3.578 0 5.876-1.929 7.417-4.91h.117v4.355h7.708Zm-8.087-11.72c0 1.374-.058 2.865-.727 4.15-.669 1.287-2.036 2.28-3.519 2.28-4.015 0-4.451-5.143-4.451-8.183 0-3.36.175-9.469 4.8-9.469 3.694 0 3.897 4.647 3.897 7.365v3.858Zm37.815-.964c.058-3.828-.553-7.803-2.851-11.017-2.298-3.215-6.341-4.969-10.239-4.969-8.697 0-13.584 6.693-13.584 14.993 0 8.358 5.44 14.203 13.817 14.203 9.454 0 12.712-8.3 12.712-9.673l-7.476-.556c0 2.601-2.473 4.413-4.945 4.413-3.52 0-5.381-2.718-5.381-6.02l.058-1.374h17.889Zm-18.006-4.793c.262-3.214 1.658-5.874 5.236-5.874 3.52 0 4.509 2.806 4.683 5.874h-9.919Zm21.584 17.477h8.086V7.52h-8.086v37.934Zm12.101 0h8.086V7.52h-8.086v37.934Z"/></g><defs><clipPath id="a"><path fill="#fff" transform="translate(.512)" d="M0 0h230v46H0z"/></clipPath></defs></svg>
